X:18723
T:White Cockade,The. JC.027
M:2/4
L:1/8
Q:210
S:John Clare,Poet,Helpston. (1793-1864)
R:Scots Measure
O:England
A:Northamptonshire
N:
Z:P Headford
K:F
f|AF AG/F/|AAAf|cA AG/F/|AG GF/G/|AA AG/A/|
{G}FF>fg|(a/g/f/e/) (g/f/e/d/)|cA AA/B/|!
cAfc|{d}cccd|{d}cB/A/ {g}~fe/f/|gG ~GF/G/|
AA AF/A/|FF>fg|(a/g/f/e/) (g/f/e/d/)|cA AA/B/|!
~cAfA|cccd|{d}cB/A/ fe/f/|gG GF/G/|
AA/c/ {B}AG/A/|FF>fg|(a/g/f/e/) (g/f/e/d/)|cAF|]
W:Song text exists. See Deacon.


